client/public/img/game/normal/buildings/headquarters_vault_ceiling.svg

<?xml version="1.0" encoding="UTF-8" standalone="no"?>
<!-- Created with Inkscape (http://www.inkscape.org/) -->

<svg
   width="58.507mm"
   height="81.010056mm"
   viewBox="0 0 117.014 162.02011"
   version="1.1"
   id="svg1"
   xmlns="http://www.w3.org/2000/svg"
   xmlns:svg="http://www.w3.org/2000/svg">
  <defs
     id="defs1" />
  <g
     id="layer1"
     transform="translate(-78.316849,1.0581604)">
    <g
       id="g249395"
       transform="translate(295.04034,880.51836)">
      <g
         id="g1"
         transform="matrix(0.99999693,0,0,0.99999693,-247.61576,-937.59319)">
        <g
           id="g32747"
           transform="translate(247.61603,937.59352)"
           clip-path="none">
          <path
             id="path32739"
             style="fill:#262626;fill-opacity:1;stroke-width:0.164829"
             d="m -881.57668,216.68341 h 162.0206 V 99.749984 h -154.59905 v 3.142446 c 0,2.30958 -1.95856,4.58029 -4.51837,4.58029 h -2.90318 z"
             transform="rotate(90)" />
          <g
             id="g32745"
             transform="matrix(0,0.12130345,-0.19783063,0,-99.660973,-880.70389)"
             style="stroke-width:1.0542">
            <path
               id="path32741"
               style="fill:#4b4b4b;fill-opacity:1;stroke-width:1.0542"
               d="M 9.5981974,582.49037 H 1313.6008 V 9.4906034 H 72.129973 V 16.33445 c 0,20.388991 -21.127537,33.111252 -55.391855,33.111252 H 9.5981974 Z" />
            <path
               d="M 141.306,586.988 5.09961,450.782 V 406.941 L 185.147,586.988 Z M 5.09961,275.041 v -43.84 L 360.887,586.988 h -43.84 z m 0,-219.5785 L 536.625,586.988 h -43.84 L 5.09961,99.3031 Z M 130.366,4.98828 712.366,586.988 H 668.525 L 86.525,4.98828 Z M 844.263,586.988 262.263,4.98828 h 43.841 l 582,581.99972 z M 481.844,4.98828 1063.84,586.988 H 1020 L 438.004,4.98828 Z M 1195.74,586.988 613.742,4.98828 h 43.84 L 1239.58,586.988 Z M 833.323,4.98828 1318.1,489.765 v 43.841 L 789.482,4.98828 Z m 175.737,0 309.04,309.03872 v 43.84 L 965.22,4.98828 Z m 175.74,0 133.3,133.29872 v 43.84 L 1140.96,4.98828 Z"
               fill="#6d7379"
               stroke="#313335"
               stroke-width="9.48783"
               id="path32743"
               style="fill:#606060;fill-opacity:1;stroke:#262626;stroke-opacity:1" />
          </g>
        </g>
      </g>
    </g>
  </g>
</svg>

<svg xmlns="http://www.w3.org/2000/svg" width="221.129" height="306.18" viewBox="0 0 117.014 162.02"><path d="M-881.577 216.683h162.02V99.75h-154.598v3.142c0 2.31-1.959 4.58-4.519 4.58h-2.903z" style="fill:#262626;fill-opacity:1;stroke-width:.164829" transform="matrix(0 1 -1 0 216.723 881.574)"/><g style="stroke-width:1.0542"><path d="M9.598 582.49h1304.003v-573H72.13v6.844c0 20.39-21.128 33.112-55.392 33.112h-7.14Z" style="fill:#4b4b4b;fill-opacity:1;stroke-width:1.0542" transform="matrix(0 .1213 -.19783 0 117.062 .873)"/><path fill="#6d7379" stroke="#313335" stroke-width="9.488" d="M141.306 586.988 5.1 450.782v-43.841l180.047 180.047ZM5.1 275.041v-43.84l355.787 355.787h-43.84zm0-219.578 531.525 531.525h-43.84L5.1 99.303ZM130.366 4.988l582 582h-43.841l-582-582Zm713.897 582-582-582h43.841l582 582zm-362.419-582 581.996 582H1020l-581.996-582Zm713.896 582-581.998-582h43.84l581.998 582Zm-362.417-582L1318.1 489.765v43.841L789.482 4.988Zm175.737 0 309.04 309.039v43.84L965.22 4.988Zm175.74 0 133.3 133.299v43.84L1140.96 4.988Z" style="fill:#606060;fill-opacity:1;stroke:#262626;stroke-opacity:1" transform="matrix(0 .1213 -.19783 0 117.062 .873)"/></g></svg>
